!! 00000] TT[WS
!!!OTL: Xiao kanhua
!!!ARE: Asia, China,ÿShanxi Cuoqun
!! Ethnic Group: Han
!! WI, 231
!!!SCT: J0277
!!!YEM: Copyright 1995, estate of Helmut Schaffrath.
**kern
*ICvox
*Ivox
*M2/4
*k[b-]
*F:
{8a
8cc
8dd
8ff
=1
8cc
8a
8cc
8ff
=2
8dd
8cc
8b-
16a
16cc
=3
2g}
=4
{8a
8cc
8dd
8ff
=5
8cc
8a
8cc
8ff
=6
8dd
8cc
8b-
16a
16cc
=7
2g}
=8
{8a
8cc
8a
8g
=9
8a
8cc
8a
8g
=10
4ff
8a
8g
=11
4f
8e
8d}
=12
{8d
8cc
8a
8g
=13
8f
8g
8a
8cc
=14
8g
8f
8e
8d
=15
2c}
=16
{8g
8f
8g
8a
=17
8f
8a
8a
8g
=18
4f
8e
8d}
=19
{8d
8cc
8a
8g
=20
8f
8g
8a
8cc
=21
8g
8f
8e
8d
=22
2c}
==
!!!AGN: Xiaodiao. Fengsuge
!!!ONB: ESAC (Essen Associative Code) Database: CHINA
!!!AMT: simple duple
!!!AIN: vox
!!!EED: Helmut Schaffrath
!!!EEV: 1.0
*-
